app/dist/common/images/perfect.svg

<svg height="18" viewBox="0 0 18 18" width="18" xmlns="http://www.w3.org/2000/svg"><path d="m0 0h18v18h-18z" fill="#dc3d73"/><path d="m10.25 10h-3.25v5h-1v-11h4.19c2.43 0 2.81 1.95 2.81 2.88v.2c0 .97-.38 2.92-2.75 2.92zm1.75-3.08c0-1.55-1-1.92-1.64-1.92h-3.36v4h3.39c.63 0 1.61-.39 1.61-1.93z" fill="#f0f3fa"/></svg>

<!-- by TradingView --><svg width="18" height="18" viewBox="0 0 18 18" xmlns="http://www.w3.org/2000/svg"><path fill="#DC3D73" d="M0 0h18v18H0z"/><path d="M10.25 10H7v5H6V4h4.19C12.62 4 13 5.95 13 6.88v.2c0 .97-.38 2.92-2.75 2.92ZM12 6.92C12 5.37 11 5 10.36 5H7v4h3.39C11.02 9 12 8.61 12 7.07v-.15Z" fill="#F0F3FA"/></svg>
